X:1
T:The Goldfinch
R:jig
C: Paul Gitlitz 1999
N:These lovely cheerful yellow visitors to my feeders makes
N:me think of summer mornings.
B:Giblitz Fancy
M:6/8
L:1/8
K:G
|"G"DGA B2d|"Am"c2A- AAc|"G"B2G- GAB|"Em"AGE "D"D2D|!
"G"DGAB2d|"Am"c2A- A(cd|"C"e)(dc "D"A2)B
|1"G"G3-G2D:|2"G"G3-Geg||!
|:"D"f2d- def|"C"e2c-cde|"Bm"d2B-Bcd|"Am"edc  "D"A2g|!
"D"f2d- def|"C"e2c-cde|"C"dcB "D"A2B|1"G"G3-Geg:|2"G"G3-G|]
